svg/uf010c-class_titan.svg

<svg height="960" style="" width="1154" xmlns="http://www.w3.org/2000/svg"><path d="m539.99313 479.33062-420.04876-242.53687v485.07375zm74.01374 0 420.04873 242.53688v-485.07375zm174.83438-388.07812-210.02438-121.2525-420.04875 242.53688 420.04875 242.53687 420.08063-242.53687zm0 534.99-210.02438-121.28438-420.04875 242.53688 420.04875 242.505 420.08063-242.505-210.05625-121.28438z" style="stroke-width:31.875"/></svg>

<svg xmlns="http://www.w3.org/2000/svg" width="1154" height="960">
    <path d="M539.993 479.33 119.944 236.795v485.074zm74.014 0 420.049 242.538V236.794zM788.84 91.254 578.817-30 158.768 212.537l420.049 242.537 420.08-242.537zm0 534.99L578.817 504.958 158.768 747.495 578.817 990l420.08-242.505-210.056-121.284z" style="stroke-width:31.875"/>
</svg>
